X: 1
T: Far From Home
C: Trad
R: Reel
M: 4/4
L: 1/8
K: G
Z: ABC transcription by Verge Roller
r: 32
|: "G" GEDE G2 GA | "G" B2 BA Bc d2 | "G" GEDE G2 GB | "D" AGAB AGEF |
"G" GEDE G2 GA | "G" B2 BA Bc d2 | "C" edef gedc | "D" BGAF "G" G4 :|
|: "Em" g2 ge "D" f2 fd | "C" edef "G" ed B2 | "G" gedB G2 GB | "D" AGAB AGEF |
"G" GEDE G2 GA | "G" B2 BA Bc d2 | "C" edef gedc | "D" BGAF "G" G4 :|
